X:1
T:Tulip
M:2/4
L:1/8
Q:1/4=120
K:C
C D E2 | C D E2 | G E D C | D E D2 |
C D E2 | C D E2 | G E D C | D E C2 |
G G E G | A A G2 | E E D D | C4 |
